X:77
L:1/8
M:4/4
K:C
 BEA ue2003 |[M:6/8][K:G]SOSOO .!fermata!PMTCOMD | GBB BAG | Bdd dBG | cee dBG | BAA A2 B | 
 GBB BAG | Bdd dBG | cee dBA | BGG G2 :: d | gfg afd | efg d2 B | cee dBG | BAA Adf | gab afd | 
 efg dBG | cee dBA | BGG G2 :|

